X: 10
T: New Riggit Ship, The
M: 4/4
L: 1/4
Q: 120
K: A
e/g/|"Am"a a/b/ a/g/ e/g/| a a/b/ a/g/ e/f/| "G"g g "Em"f/g/ a/g/|1"Bm"f "D"d d :|2 "Bm"f "D"d d e/d/|:
K: A
 "A"c/A/ c/A/ "G"B e/d/| "A"c/A/ c/A/ "Em"E e/d/| "Am"c/A/ c/A/ "G"B e/d/|1 "A"c A A e/d/:|2"A"c A A A/B/|:
K: A minor
"Am"c/d/ e/c/ "G"B/c/ d/B/| "Am"A/B/ A/G/ "Em"E A/B/| "Am"c/d/ e/c/ "G"B/c/ d/B/ |1"Am"c A/G/
A A/B/:|2"Am"c A A||
